X:1
T:Blaenhafren, 87.87 D
T:Welsh melody
T:Blaenhafren, 87.87 D
T:Public Domain
T:Public Domain
C:Welsh melody
Z:Public Domain
%%score ( 1 2 ) ( 3 4 )
L:1/8
M:2/2
K:Bb
V:1 treble 
V:2 treble 
V:3 bass 
V:4 bass 
V:1
 [DG]4 [DG]4 | (F3 G) [DF]4 | (B3 A) [DG]4 | (A3 G) [D^F]4 | [DG]4 [DG]4 | [D^F]4 [DG]4 | %6
 [EA]4 (D2 C2) | [B,G]8 | [DG]4 [DG]4 | (F3 E) [B,D]4 | (B3 A) [DG]4 | (A3 G) [D^F]4 | %12
 [DG]4 [DG]4 | [D^F]4 [DG]4 | [EA]4 [D^F]4 | [DG]8 | (B3 c) (G2 ^F2) | (B3 c) (G2 ^F2) | %18
 (B3 c) (F2 G2) | [Fd]4 [Fc]4 | [FB]6 [FA]2 | [FB]6 [^FA]2 | G2- G2 (B2 c2) | [^Fd]8 | %24
 [DG]4 [DG]4 | (F3 E) [B,D]4 | (B3 A) [DG]4 | (A3 G) [D^F]4 | [DG]4 [DG]4 | [D^F]4 [DG]4 | %30
 [EA]4 D2 C2 | [B,G]8 |] %32
V:2
 x8 | D4 x4 | D4 x4 | E4 x4 | x8 | x8 | x4 ^F4 | x8 | x8 | C4 x4 | D4 x4 | E4 x4 | x8 | x8 | x8 | %15
 x8 | G4 d4 | G4 d4 | G4 d4 | x8 | x8 | x8 | x2 A2 G4 | x8 | x8 | C4 x4 | D4 x4 | E4 x4 | x8 | x8 | %30
 x4 ^F4 | x8 |] %32
V:3
 [G,,B,]4 [G,,B,]4 | (C3 F,) [B,,F,]4 | ([G,,G,]3 [A,,^F,]) (G,2 D2) | (C3 B,) [D,A,]4 | %4
 [B,,G,]4 [G,,B,]4 | (D,3 C,) [B,,G,]4 | [C,C]4 [D,A,]4 | [G,,G,]8 | [G,,B,]4 [G,,B,]4 | %9
 (C3 F,) [B,,F,]4 | ([G,,G,]3 [A,,^F,]) (G,2 D2) | (C3 B,) [D,A,]4 | [B,,G,]4 [G,,B,]4 | %13
 D,3 C, [B,,G,]4 | [C,C]4 [D,C]4 | [G,,B,]8 | ([G,D]3 [A,C]) (B,2 [A,C]2) | %17
 ([G,D]3 [A,C]) (B,2 [A,C]2) | [G,D]4 (D,2 E,2) | [F,B,]4 [F,A,]4 | (D,2 C,2 D,2) [E,C]2 | %21
 (D,2 C,2 B,,2) [D,C]2 | (B,2 A,2) [E,G,]4 | [D,A,]8 | [B,,G,]3 [A,,A,] [G,,B,]4 | %25
 (C3 F,) [B,,F,]4 | ([G,,G,]3 [A,,^F,]) (G,2 D2) | (C3 B,) [D,A,]4 | [B,,G,]4 [G,,B,]4 | %29
 (D,3 C,) [B,,G,]4 | [C,C]4 [D,A,]4 | [G,,G,]8 |] %32
V:4
 x8 | A,,4 x4 | x4 B,,4 | C,4 x4 | x8 | A,4 x4 | x8 | x8 | x8 | A,,4 x4 | x4 B,,4 | C,4 x4 | x8 | %13
 A,4 x4 | x8 | x8 | x4 B,2 x2 | x4 B,2 x2 | x4 B,4 | x8 | B,6 x2 | D6 x2 | G,4 x4 | x8 | x8 | %25
 A,,4 x4 | x4 B,,4 | C,4 x4 | x8 | A,4 x4 | x8 | x8 |] %32

